public/assets/btc.svg

<svg fill="none" height="32" viewBox="0 0 32 32" width="32" xmlns="http://www.w3.org/2000/svg"><path d="m31.4972 19.8939c-2.1369 8.5715-10.8185 13.788-19.391 11.6505-8.56893-2.1369-13.78538-10.819-11.647531-19.3898 2.135981-8.57246 10.817531-13.7893 19.387431-11.652388 8.5719 2.136918 13.788 10.819988 11.6509 19.391888l.0001-.0002z" fill="#f7931a"/><path d="m23.0554 13.7204c.3184-2.1292-1.3026-3.2738-3.5193-4.03732l.7191-2.88426-1.7558-.43748-.7 2.80832c-.4616-.11512-.9356-.2236-1.4067-.33113l.7051-2.82685-1.7546-.43749-.7195 2.88332c-.382-.08697-.7571-.17292-1.1211-.26348l.002-.00907-2.4212-.60462-.467 1.87524s1.3026.29859 1.2751.31697c.711.17745.8396.64805.8182 1.02115l-.8191 3.2858c.049.0125.1125.0305.1825.0586-.0585-.0145-.1209-.0304-.1855-.0459l-1.1482 4.603c-.0869.216-.3074.5402-.8045.4171.01759.0255-1.2761-.3185-1.2761-.3185l-.87169 2.0098 2.28479.5696c.4251.1066.8416.2181 1.2518.323l-.7266 2.9173 1.7538.4375.7195-2.8864c.479.1301.944.25 1.3991.3631l-.717 2.8728 1.7558.4375.7264-2.9119c2.9939.5666 5.2451.3382 6.1927-2.3698.7635-2.1803-.038-3.4378-1.6131-4.2579 1.1472-.2646 2.0113-1.0191 2.2417-2.5778l-.0006-.0003zm-4.0115 5.6251c-.5426 2.1802-4.2134 1.0017-5.4036.7061l.9642-3.8649c1.19.2971 5.0065.885 4.4395 3.1588zm.543-5.6567c-.495 1.9832-3.5503.9756-4.5414.7286l.8742-3.5053c.9911.2471 4.1828.7082 3.6674 2.7767z" fill="#fff"/></svg>

<svg width="32" height="32" viewBox="0 0 32 32" fill="none" xmlns="http://www.w3.org/2000/svg">
<path d="M31.4972 19.8939C29.3603 28.4654 20.6787 33.6819 12.1062 31.5444C3.53727 29.4075 -1.67918 20.7254 0.458669 12.1546C2.59465 3.58214 11.2762 -1.6347 19.8461 0.502212C28.418 2.63913 33.6341 11.3222 31.497 19.8941L31.4971 19.8939H31.4972Z" fill="#F7931A"/>
<path d="M23.0554 13.7204C23.3738 11.5912 21.7528 10.4466 19.5361 9.68308L20.2552 6.79882L18.4994 6.36134L17.7994 9.16966C17.3378 9.05454 16.8638 8.94606 16.3927 8.83853L17.0978 6.01168L15.3432 5.57419L14.6237 8.45751C14.2417 8.37054 13.8666 8.28459 13.5026 8.19403L13.5046 8.18496L11.0834 7.58034L10.6164 9.45558C10.6164 9.45558 11.919 9.75417 11.8915 9.77255C12.6025 9.95 12.7311 10.4206 12.7097 10.7937L11.8906 14.0795C11.9396 14.092 12.0031 14.11 12.0731 14.1381C12.0146 14.1236 11.9522 14.1077 11.8876 14.0922L10.7394 18.6952C10.6525 18.9112 10.432 19.2354 9.9349 19.1123C9.95249 19.1378 8.6588 18.7938 8.6588 18.7938L7.78711 20.8036L10.0719 21.3732C10.497 21.4798 10.9135 21.5913 11.3237 21.6962L10.5971 24.6135L12.3509 25.051L13.0704 22.1646C13.5494 22.2947 14.0144 22.4146 14.4695 22.5277L13.7525 25.4005L15.5083 25.838L16.2347 22.9261C19.2286 23.4927 21.4798 23.2643 22.4274 20.5563C23.1909 18.376 22.3894 17.1185 20.8143 16.2984C21.9615 16.0338 22.8256 15.2793 23.056 13.7206L23.0554 13.7203L23.0554 13.7204ZM19.0439 19.3455C18.5013 21.5257 14.8305 20.3472 13.6403 20.0516L14.6045 16.1867C15.7945 16.4838 19.611 17.0717 19.044 19.3455H19.0439ZM19.5869 13.6888C19.0919 15.672 16.0366 14.6644 15.0455 14.4174L15.9197 10.9121C16.9108 11.1592 20.1025 11.6203 19.5871 13.6888H19.5869Z" fill="white"/>
</svg>
